X:1
T:Title
%%score { ( 1 3 ) | ( 2 4 ) }
L:1/8
M:4/4
K:Ab
V:1 treble nm="Grand Piano"
V:3 treble 
V:2 bass 
V:4 bass 
V:1
 z4 z2[Q:1/4=96] [CE]>[CE] | [CE]>[Ec] [Ec]>[CA] [CE]2 [CE]>[CE] | %2
[M:3/4] [DF]>[Fd] [Fd]>[FB] [DF]2 |[M:1/4] [=DA]>[DA] |[M:4/4] G>d d>B G2 F>G | %5
[M:3/4] F>E E>[EA] [Ec]2 |[M:1/4] [CE]>[CE] |[M:4/4] [CE]>[Ec] [Ec]>[CA] [CE]2 [CE]>[CE] | %8
[M:3/4] [DF]>[Fd] [Fd]>[FB] [DF]2 |[M:1/4] [=DA]>[DA] |[M:4/4] G>d d>B G2 F>G | A6 z2 | c6 z2 | %13
 E6 z2 |[M:3/4] e6 |[M:1/4] (3cBA |[M:4/4] B6 z2 | [CE]>[Ec] [Ec]>[CA] [CE]2 [CE]>[CE] | %18
 [DF]>[Fd] [Fd]>[FB] [DF]2 [DA]>[DA] | G>d d>B G2 F>G |[M:3/4] A6 |] %21
V:2
 z4 z2 [A,,A,]>[A,,A,] | [A,,A,]>[A,,A,] [A,,A,]>[A,,A,] [A,,A,]2 [A,,A,]>[A,,A,] | %2
[M:3/4] [D,A,]>[D,A,] [D,A,]>[D,A,] [B,,B,]2 |[M:1/4] [B,,B,]>[B,,B,] | %4
[M:4/4] [E,B,E]>[E,G,E] [E,G,E]>[E,B,E] [E,DE]2 [E,B,D]>[E,B,D] | %5
[M:3/4] [A,D]>[A,C] [E,A,C]>[C,A,] [A,,A,]2 |[M:1/4] [A,,A,]>[A,,A,] | %7
[M:4/4] [A,,A,]>[A,,A,] [A,,A,]>[A,,A,] [A,,A,]2 [A,,A,]>[A,,A,] | %8
[M:3/4] [D,A,]>[D,A,] [D,A,]>[D,A,] [B,,B,]2 |[M:1/4] [B,,B,]>[B,,B,] | %10
[M:4/4] [E,B,E]>[E,G,E] [E,G,E]>[E,B,E] [E,DE]2 [E,B,D]>[E,B,D] | %11
 [A,C]2 [E,A,]>[C,A,] [A,,A,]2 z2 | %12
 [A,,A,]2 (3[A,,A,][A,,A,][A,,A,] [A,,A,]2 (3[D,A,D][D,A,D][D,A,D] | %13
 [A,,A,]2 (3[A,,A,][C,A,][E,A,] A,2 z2 |[M:3/4][K:treble] [A,CA]2 (3[A,C][A,C][A,C] [A,C]2 | %15
[M:1/4] (3E[G,B,E][K:bass][F,B,=D] |[M:4/4] [E,G,E]2 (3E,[E,G,][E,B,] [E,D]2 [A,,A,]>[A,,A,] | %17
 [A,,A,]>[A,,A,] [A,,A,]>[A,,A,] [A,,A,]2 [A,,A,]>[A,,A,] | %18
 [D,A,]>[D,A,] [D,A,]>[D,A,] [B,,B,]2 [B,,B,]>[B,,B,] | %19
 [E,B,E]>[E,G,E] [E,G,E]>[E,B,E] [E,DE]2 [E,B,D]>[E,B,D] |[M:3/4] [A,C]2 [E,A,]>[C,A,] [A,,A,]2 |] %21
V:3
 x8 | x8 |[M:3/4] x6 |[M:1/4] x2 |[M:4/4] x8 |[M:3/4] x6 |[M:1/4] x2 |[M:4/4] x8 |[M:3/4] x6 | %9
[M:1/4] x2 |[M:4/4] x8 | z2 C>C C2 z2 | E2 (3EEE E2 (3FGA | C2 (3CCC C2 z2 |[M:3/4] z2 (3AAA A2 | %15
[M:1/4] x2 |[M:4/4] z2 (3EEE E2 [CE]>[CE] | x8 | x8 | x8 |[M:3/4] z2 C>C C2 |] %21
V:4
 x8 | x8 |[M:3/4] x6 |[M:1/4] x2 |[M:4/4] x8 |[M:3/4] x6 |[M:1/4] x2 |[M:4/4] x8 |[M:3/4] x6 | %9
[M:1/4] x2 |[M:4/4] x8 | x8 | x8 | x8 |[M:3/4][K:treble] x6 |[M:1/4] A, z[K:bass] |[M:4/4] x8 | %17
 x8 | x8 | x8 |[M:3/4] x6 |] %21

